X: 3
T: Jimmy in the Swamp
M: 1/2
L: 1/8
Q: 220
S: John Hartford's "Wild Hog in the Redbrush" transcribed by Llarry Brandon
K: G
|: GE \
| "G"DEGA BAGA | Bded ef .g2 | DEGA BAGA | BAGB"D" AGEG |
| "G" DEGA BAGA | Bded efga | bgag efge | "D"dBAF "G"G2 :|
|: z2 \
| "Em"{d}e4 B4 | efed B2 gf | "G"e2 .E2 EFGA | BAGB AGE2 |
| "Em"{d}e4 B4 | efed B2 gf | "G"e2 .E2 EFGA | "D"BGAF"G"G2 :|
%%sep 2 1 500
